X:9926
T:Love and Whisky
R:Hornpipe
O:England
M:3/2
L:1/4
N:version of Manx "Girls of Balladoole" in KV (also next)
A:Lancashire
B:Winder
K:G
BG GE G2 | BG GE FA | BG GE GB | A>B AG FA :|*
|:GB dc B2 | GB dc B>c | de dc Bc | BA/2B/2 AG FA:|**
